X: 1013
T: Come To Dinner
N:"Collected by J.O'Neill"
B:O'Neill's 1013
Z:Transcribed by Dan G. Petersen, dangp@post6.tele.dk
M:6/8
L:1/8
K:A
e|(c<A)A A2A|EAB cBA|(B<G)G G2G|BGB gdB|
(c<A)A A2B|cde agf|gec Bed|(c<A)A A2:|
e|aga bag|aec Ace|dBG EGB|Acf efg|
aga bag|aec Ace|dBG EGB|(c<A)A A2:|


